X:1
T:Miss Burns' Reel
Z:Jack Campin: "Embro, Embro", transcription (c) 2001
F:09love/abc/MsBurns.abc
S:RSCDS 20, from Campbell 1794
M:C|
L:1/8
Q:1/2=120
%
K:D
B|A2FA dAFD|GEFD CEEB|A2FA dAFA|BGEA        FDD:|
g|fedf abaf|gefd eBBg|fedf abaf|f/g/a f/g/a fddg|
  fedf abaf|gefd eBBg|fdec dABF|GBEg        fdd|]
